X:1
T:Title
L:1/8
M:4/4
K:Eb
V:1 treble nm="Grand Piano"
V:1
 z2[Q:1/4=100] GG G2 G2 | AGAB G4- | G2 G2 G2 G2 | AGAB G4- | G2 F=E F2 FG | A2 AG F>G FE | %6
 D3 G- G G2 F | AGAB G4 | z2 cc c2 cB | d2 dc B>c BA | G2 GF E2 F2 | G8 | z2 B2 B2 BA | %13
 cccB A>B AG | F2 FE D2 EE | F3 G- G4 | z2 cc c2 cB | d2 dc B>c BA | G2 GF E2 F2 | G8 | %20
 z2 B2 B2 BA | cccB A>B AG | F2 FE D2 EE | F3 G- G2 =B2 | c2 z2 z4 |] %25

